!!!COM:	Japart, Jean
!!!CDT:	~1450//-~1507//
!!!OTL:	Si congi&eacute; pris
!!!AGN:	Song; Chanson
!!!SCT:	Jap3018
!!!SCA:	Jap3018
!!!voices:	4
**kern	**kern	**kern	**kern
*staff4	*staff3	*staff2	*staff1
*Ivox	*Ivox	*Ivox	*Ivox
*I"Bassus	*I"Tenor	*I"Altus	*I"Discantus
*I'B	*I'T	*I'A	*I'D
*clefF4	*clefGv2	*clefGv2	*clefG2
*k[b-]	*k[b-]	*k[b-]	*k[b-]
*M2/1	*M2/1	*M2/1	*M2/1
*met(C|)	*met(C|)	*met(C|)	*met(C|)
=1-	=1-	=1-	=1-
0GG	1r	1G	0g
.	1G	1B-	.
=2	=2	=2	=2
1D	1A	0A	1f
1D	1d	.	1f
=3	=3	=3	=3
1GG	1d	1G	0g
2.C	1c	2.E	.
4D	.	4F	.
=4	=4	=4	=4
2E-i	1.B-	2G	0r
1D	.	1F	.
4C	4A	4E	.
4BB-	4G	4D	.
=5	=5	=5	=5
2AA	2F	2C	1r
2GG	1G	1D	.
1AA	.	.	1a
.	2F#i	2C	.
=6	=6	=6	=6
0GG	1G	0D	1.b-
.	1G	.	.
.	.	.	2a
=7	=7	=7	=7
1r	1.c	0E	1g
1C	.	.	1g
.	2B-	.	.
=8	=8	=8	=8
2.D	1A	1r	0f
4C	.	.	.
2AA	1A	[1F	.
[2D	.	.	.
=9	=9	=9	=9
4D]	1.B-	1F]	1r
4C	.	.	.
4BB-	.	.	.
4AA	.	.	.
[1GG	.	1G	1b-
.	2A	.	.
=10	=10	=10	=10
0GG]	2G	[0d	1b-
.	2F	.	.
.	1G	.	1b-
=11	=11	=11	=11
[0D	0A	1d]	1.a
.	.	[1f	.
.	.	.	4g
.	.	.	4f
=12	=12	=12	=12
1D]	0r	2f]	1f
.	.	4e	.
.	.	4d	.
1C	.	1e	1g
=13	=13	=13	=13
1BB-	0r	1.d	1b-
1F	.	.	1a
.	.	2c	.
=14	=14	=14	=14
2G	0r	2B-	1g
4F	.	4A	.
4E	.	4G	.
1D	.	1A	1f#i
=15	=15	=15	=15
0GG	1r	1.G	0g
.	1G	.	.
.	.	4F	.
.	.	4E	.
=16	=16	=16	=16
1r	1A	1F	1r
1G	1d	[1B-	1g
=17	=17	=17	=17
1B-	1d	1B-]	1f
1A	1c	1c	1f
=18	=18	=18	=18
1.G	1.B-	2d	0g
.	.	1e-i	.
2F	2A	2d	.
=19	=19	=19	=19
2E	1G	2c	0r
2D	.	2B-	.
1E	1G	1c	.
=20	=20	=20	=20
0D	0F	1d	1r
.	.	1f	1a
=21	=21	=21	=21
1G	0r	2e	1b-
.	.	2d	.
1F	.	[1d	1a
=22	=22	=22	=22
0E	1r	1d]	1g
.	1G	1c#i	1g
=23	=23	=23	=23
[0D	1A	1.d	0f
.	1d	.	.
.	.	4c	.
.	.	4B-	.
=24	=24	=24	=24
1D]	1.d	1A	1r
[1GG	.	1B-	1b-
.	2c	.	.
=25	=25	=25	=25
0GG]	1.B-	0G	1b-
.	.	.	1b-
.	4A	.	.
.	4G	.	.
=26	=26	=26	=26
0D	1.F	1r	1.a
.	.	[1d	.
.	4E	.	2g
.	4F	.	.
=27	=27	=27	=27
0r	2G	2d]	1b-
.	1d	2e	.
.	.	2.f	1a
.	4c	.	.
.	4d	4e	.
=28	=28	=28	=28
1r	4e	1c	2g
.	4d	.	.
.	4c	.	1g
.	4B-	.	.
1D	1A	[1d	.
.	.	.	2f#i
=29	=29	=29	=29
1BB-	0G	2d]	0g
.	.	4c	.
.	.	4B-	.
[1GG	.	[1B-	.
=30	=30	=30	=30
2GG]	1r	2B-]	1.d
1BB-	.	1d	.
.	1d	.	.
2C	.	4c	2e
.	.	4B-	.
=31	=31	=31	=31
0D	1.d	2A	1f
.	.	2G	.
.	.	1A	1f
.	2c	.	.
=32	=32	=32	=32
1r	1B-	1G	1g
1D	1A	1F	1r
=33	=33	=33	=33
2GG	1.B-	1D	0r
1D	.	.	.
.	.	1r	.
2C	4A	.	.
.	4G	.	.
=34	=34	=34	=34
2.D	2.F	2.A	0r
4E-i	4G	4G	.
2D	2B-	2F	.
2C	[2A	2E	.
=35	=35	=35	=35
2D	2A]	2D	1r
2BB-	1G	1D	.
1AA	.	.	1a
.	2F#i	2C	.
=36	=36	=36	=36
1GG	1G	2D	1b-
.	.	2.d	.
1D	1r	.	1a
.	.	4e	.
.	.	4f	.
.	.	4e	.
=37	=37	=37	=37
0E	1r	4g	2g
.	.	4f	.
.	.	4e	1g
.	.	4d	.
.	1G	2.c#i	.
.	.	.	4f
.	.	4B-	4e
=38	=38	=38	=38
0D	1A	3%2dV	0f
.	.	3%2A	.
.	1F	.	.
.	.	3%2B-Z	.
=39	=39	=39	=39
0C	1G	0c	0r
.	1A	.	.
=40	=40	=40	=40
0GG	1.B-	1.d	1r
.	.	.	1b-
.	2A	2c	.
=41	=41	=41	=41
1r	1G	2B-	1b-
.	.	4A	.
.	.	4G	.
1GG	1G	2B-	1b-
.	.	4A	.
.	.	4G	.
=42	=42	=42	=42
1.D	0A	2.F	1a
.	.	4G	.
.	.	1A	1f
4E	.	.	.
4F	.	.	.
=43	=43	=43	=43
1G	1r	2G	1b-
.	.	2.d	.
2.D	1F	.	1a
.	.	4e	.
.	.	4f	.
4F	.	4d	.
=44	=44	=44	=44
1E	1G	2e	1g
.	.	2c	.
2.D	1A	[1d	1f#i
4C	.	.	.
=45	=45	=45	=45
4BB-	1B-	2d]	0g
4AA	.	.	.
2.GG	.	1g	.
.	1B-	.	.
4AA	.	.	.
4BB-	.	4f	.
4C	.	4e	.
=46	=46	=46	=46
0D	1.A	1.f	0r
.	4G	4e	.
.	4F	4d	.
=47	=47	=47	=47
1r	1E	2c	1r
.	.	1d	.
1G	1E	.	1g
.	.	2c#i	.
=48	=48	=48	=48
1A	0D	0d	1f
1A	.	.	1f
=49	=49	=49	=49
1.B-	0r	1.G	0g
4A	.	4F	.
4G	.	4E	.
=50	=50	=50	=50
2F	0r	0D	1r
2E	.	.	.
1F	.	.	1a
=51	=51	=51	=51
1G	0r	1r	1b-
1D	.	1F	1a
=52	=52	=52	=52
1E	1r	0G	2g
.	.	.	1b-
1G	1d	.	.
.	.	.	4a
.	.	.	4g
=53	=53	=53	=53
[0D	1.d	1.A	0f
.	2c	2G	.
=54	=54	=54	=54
0D]	1B-	1F	0r
.	1A	2D	.
.	.	[2F	.
=55	=55	=55	=55
1D	2B-	2F]	0r
.	4A	4E	.
.	4B-	4D	.
2C	4c	2E	.
.	4B-	.	.
[2D	4A	[2F	.
.	4G	.	.
=56	=56	=56	=56
2D]	2F	4F]	0r
.	.	4E	.
2BB-	2.G	2D	.
1AA	.	2E	.
.	4E	.	.
.	2F#i	2C	.
=57	=57	=57	=57
0GG	0G	1D	1r
.	.	2.d	1b-
.	.	4c	.
=58	=58	=58	=58
0G	0r	2.B-	1b-
.	.	4A	.
.	.	1G	1b-
=59	=59	=59	=59
0D	1r	0F	1.a
.	1d	.	.
.	.	.	2f
=60	=60	=60	=60
1G	1.d	1r	1b-
1F	.	1f	1a
.	2c	.	.
=61	=61	=61	=61
1G	1B-	2d	1g
.	.	2e-i	.
1D	1A	[1d	1f#i
=62	=62	=62	=62
1GG	2B-	2d]	2g
.	4A	4c	2.b-
.	4G	4B-	.
2r	2F	2c	.
.	.	.	4a
2GG	[2G	2B-	[2b-
=63	=63	=63	=63
2.BB-	2G]	2G	4b-]
.	.	.	4a
.	2B-	1.d	2g
4C	.	.	.
1D	1A	.	2.f#i
.	.	.	4e
=64	=64	=64	=64
0GGl	0Gl	0dl	0gl
==	==	==	==
*-	*-	*-	*-
!!!RDF**kern: l=long note in original notation
!!!RDF**kern: i=editorial accidental
!!!RDF**kern: V=start of tuplet marker
!!!RDF**kern: Z=end of tuplet marker
!!!ENC:	Chris Gage 09-25-2013
!!!END:	2013/10/12/
!!!EED:	Jesse Rodin
!!!EEV:	2013/12/19/
!!!ONB:	Translated from MusicXML and edited on 2013/12/19/ by Craig Sapp
!!muse2ps: C^@{COM}^i2I150v85,85,85,100Q8c130
